svg/u1f324.svg

<svg viewBox="0 0 128 128" xmlns="http://www.w3.org/2000/svg">
  <path d="M33.58,45.38c-8.27,10.63-8.13,29.53,2.44,38.89c12.01,10.63,28.9,10.52,39.53,0.74 C88.3,73.29,87.56,53.77,76.3,42.72C64.98,31.61,44.74,31.03,33.58,45.38z" fill="#FCC11A"/>
  <path d="M46.87,41.73c-3.27-1.45-6.85,2.49-8.41,5.19c-1.56,2.7-3.01,8,0.31,9.35 c3.32,1.35,5.71-0.93,8.1-4.88S50.61,43.39,46.87,41.73z" fill="#FEE269"/>
  <path d="M55.39,26.91c-0.79,1.49-0.52,2.62,1.05,3c1.57,0.37,11.39,1.97,12.21,2.02 c1.2,0.07,1.65-0.82,1.5-1.87C70,29.01,67.6,14.32,67.38,12.98s-1.65-2.7-3-0.9C63.03,13.87,55.99,25.79,55.39,26.91z" fill="#FFA722"/>
  <path d="M79.23,37.03c-1.48,0.64-1.33,1.58-0.38,2.68s7.56,9.12,8.14,9.66c0.59,0.54,1.5,0.59,2.14-0.39 s8.52-15.03,9.11-15.92c0.97-1.46,0.15-2.8-1.52-2.17C95.46,31.38,80.16,36.63,79.23,37.03z" fill="#FFA722"/>
  <path d="M80.19,86.84c1.19-0.64,2.25-0.15,2.55,1.2c0.3,1.35,3.6,15.13,4.12,17.68 c0.26,1.28-1.2,2.32-2.4,1.57c-1.2-0.75-14.22-9.83-15.06-10.56c-1.2-1.05-0.37-2.14,0.22-2.7C70.82,92.91,79.06,87.44,80.19,86.84z " fill="#FFA722"/>
  <path d="M43.93,94.41c-1.51-0.14-1.95,1.2-1.72,2.4c0.22,1.2,2.47,16.4,2.62,17.53 c0.22,1.65,1.95,2.32,3.07,0.67c1.12-1.65,8.82-13.98,9.44-15.13c1.12-2.1,0.3-2.55-0.82-3.07C55.39,96.28,45.5,94.56,43.93,94.41z" fill="#FFA722"/>
  <path d="M22.35,76.95c1.05-1.72,2.4-1.27,3.37,0.37c0.67,1.13,6.29,8.69,6.82,9.51 c0.52,0.82,0.75,2.4-0.9,2.77c-1.65,0.37-15.06,3.9-17.16,4.27s-3.3-1.27-1.95-3.07C13.32,89.76,21.76,77.93,22.35,76.95z" fill="#FFA722"/>
  <path d="M19.5,63.92c1.92,0.85,2.82,0.54,3.22-0.82c0.52-1.8,2.1-10.04,2.17-11.91 c0.05-1.22-0.45-2.4-2.32-2.1S7.22,51.26,5.5,51.86c-2,0.7-1.86,2.9-0.52,3.6C6.54,56.28,18.16,63.32,19.5,63.92z" fill="#FFA722"/>
  <path d="M42.8,32.45c1.08-0.86,0.75-2.1-0.22-2.77c-0.97-0.67-13.01-9.38-14.53-10.56 c-1.35-1.05-3-0.67-2.55,1.72c0.32,1.72,4.16,16.79,4.42,17.83c0.3,1.2,1.2,1.8,2.25,1.05S41.68,33.35,42.8,32.45z" fill="#FFA722"/>
  <path d="M112.86,68.59c0.01-0.65,2.21-23.08-17.49-27.23c-19.04-4.02-24.03,13.82-24.03,13.82 s-6.75-0.83-11.7,2.93c-4.95,3.77-5.23,9.98-5.23,9.98s-7.96-0.3-11.71,4.13c-3.39,4-2.26,7.61-2.26,7.61l21.97,5.57l55.53-1.49 l6.37-3.86c0,0,0.36-5.05-2.93-8.25C116.84,67.4,112.86,68.59,112.86,68.59z" fill="#E2EBEE"/>
  <path d="M61.29,77.3c0,0-6.09,2.68-13.63,2.02c-4.48-0.39-7.34-1.72-7.34-1.72s-0.77,5.18,3.3,7.73 c3.05,1.91,5.96,2.2,11.38,2.18s54.74-0.12,58.29-0.16c3.56-0.04,6.94-0.67,8.67-2.28c2.18-2.03,2.34-5.02,2.34-5.02 s-3.42,1.02-8.18,0.4c-4.74-0.62-7.5-2.74-7.5-2.74s-3.41,2.91-21.04,3.23C68.56,81.29,61.29,77.3,61.29,77.3z" fill="#BACDD2"/>
</svg>

<svg viewBox="0 0 128 128" xmlns="http://www.w3.org/2000/svg">
  <defs/>
  <path d="M33.58,45.38 C25.31,56.01 25.45,74.91 36.02,84.27 C48.03,94.9 64.92,94.79 75.55,85.01 C88.3,73.29 87.56,53.77 76.3,42.72 C64.98,31.61 44.74,31.03 33.58,45.38 Z" fill="#FCC11A"/>
  <path d="M46.87,41.73 C43.6,40.28 40.02,44.22 38.46,46.92 C36.9,49.62 35.45,54.92 38.77,56.27 C42.09,57.62 44.48,55.34 46.87,51.39 C49.26,47.44 50.61,43.39 46.87,41.73 Z" fill="#FEE269"/>
  <path d="M55.39,26.91 C54.6,28.4 54.87,29.53 56.44,29.91 C58.01,30.28 67.83,31.88 68.65,31.93 C69.85,32 70.3,31.11 70.15,30.06 C70,29.01 67.6,14.32 67.38,12.98 C67.16,11.64 65.73,10.28 64.38,12.08 C63.03,13.87 55.99,25.79 55.39,26.91 Z" fill="#FFA722"/>
  <path d="M79.23,37.03 C77.75,37.67 77.9,38.61 78.85,39.71 C79.8,40.81 86.41,48.83 86.99,49.37 C87.58,49.91 88.49,49.96 89.13,48.98 C89.77,48 97.65,33.95 98.24,33.06 C99.21,31.6 98.39,30.26 96.72,30.89 C95.46,31.38 80.16,36.63 79.23,37.03 Z" fill="#FFA722"/>
  <path d="M80.19,86.84 C81.38,86.2 82.44,86.69 82.74,88.04 C83.04,89.39 86.34,103.17 86.86,105.72 C87.12,107 85.66,108.04 84.46,107.29 C83.26,106.54 70.24,97.46 69.4,96.73 C68.2,95.68 69.03,94.59 69.62,94.03 C70.82,92.91 79.06,87.44 80.19,86.84 Z" fill="#FFA722"/>
  <path d="M43.93,94.41 C42.42,94.27 41.98,95.61 42.21,96.81 C42.43,98.01 44.68,113.21 44.83,114.34 C45.05,115.99 46.78,116.66 47.9,115.01 C49.02,113.36 56.72,101.03 57.34,99.88 C58.46,97.78 57.64,97.33 56.52,96.81 C55.39,96.28 45.5,94.56 43.93,94.41 Z" fill="#FFA722"/>
  <path d="M22.35,76.95 C23.4,75.23 24.75,75.68 25.72,77.32 C26.39,78.45 32.01,86.01 32.54,86.83 C33.06,87.65 33.29,89.23 31.64,89.6 C29.99,89.97 16.58,93.5 14.48,93.87 C12.38,94.24 11.18,92.6 12.53,90.8 C13.32,89.76 21.76,77.93 22.35,76.95 Z" fill="#FFA722"/>
  <path d="M19.5,63.92 C21.42,64.77 22.32,64.46 22.72,63.1 C23.24,61.3 24.82,53.06 24.89,51.19 C24.94,49.97 24.44,48.79 22.57,49.09 C20.7,49.39 7.22,51.26 5.5,51.86 C3.5,52.56 3.64,54.76 4.98,55.46 C6.54,56.28 18.16,63.32 19.5,63.92 Z" fill="#FFA722"/>
  <path d="M42.8,32.45 C43.88,31.59 43.55,30.35 42.58,29.68 C41.61,29.01 29.57,20.3 28.05,19.12 C26.7,18.07 25.05,18.45 25.5,20.84 C25.82,22.56 29.66,37.63 29.92,38.67 C30.22,39.87 31.12,40.47 32.17,39.72 C33.22,38.97 41.68,33.35 42.8,32.45 Z" fill="#FFA722"/>
  <path d="M112.86,68.59 C112.87,67.94 115.07,45.51 95.37,41.36 C76.33,37.34 71.34,55.18 71.34,55.18 C71.34,55.18 64.59,54.35 59.64,58.11 C54.69,61.88 54.41,68.09 54.41,68.09 C54.41,68.09 46.45,67.79 42.7,72.22 C39.31,76.22 40.44,79.83 40.44,79.83 L62.41,85.4 L117.94,83.91 L124.31,80.05 C124.31,80.05 124.67,75 121.38,71.8 C116.84,67.4 112.86,68.59 112.86,68.59 Z" fill="#E2EBEE"/>
  <path d="M61.29,77.3 C61.29,77.3 55.2,79.98 47.66,79.32 C43.18,78.93 40.32,77.6 40.32,77.6 C40.32,77.6 39.55,82.78 43.62,85.33 C46.67,87.24 49.58,87.53 55,87.51 C60.42,87.49 109.74,87.39 113.29,87.35 C116.85,87.31 120.23,86.68 121.96,85.07 C124.14,83.04 124.3,80.05 124.3,80.05 C124.3,80.05 120.88,81.07 116.12,80.45 C111.38,79.83 108.62,77.71 108.62,77.71 C108.62,77.71 105.21,80.62 87.58,80.94 C68.56,81.29 61.29,77.3 61.29,77.3 Z" fill="#BACDD2"/>
</svg>
